X: 38731
T: Street Player, The
R: reel
M: 4/4
K: Dmajor
|:DFAd effe|dcde fdAF|GDFG ~E3F|GDFG EFGE|
FDAG FGA=c|~B3B B=cde|f~a3 geAc|1 eddc dBAF:|2 e~d3 d3e||
|:fddc dfaf|gfed cdeg|~f3f gfed|cABG ABAG
FDAG FGA=c|~B3B B=cde|f~a3 geAc|1 e~d3 d3e:|2 eddc dBAF||

